X:1
T:We’ll Never Say Goodbye
T:We’ll Never Say Goodbye
T:George Crawford Hugg
T:George Crawford Hugg, 1894
T:Public Domain Courtesy of the Cyber Hymnal™
T:Public Domain Courtesy of the Cyber Hymnal™
C:George Crawford Hugg
Z:Public Domain
Z:Courtesy of the Cyber Hymnal™
%%score 1 2
L:1/8
Q:1/4=102
M:4/4
K:Ab
V:1 treble 
V:2 bass 
V:1
 [Ec]>[DB] | [CA]2 [CE]2 [CE]2 [CA]>[EG] | [EG]2 [DF]2 [DF]2 [DB]>[DA] | %3
w: 1.~In the|morn of morns when we|all meet there, In the|
w: 2.~Ne- ver|sad- ness there, nei- ther|grief nor tear, In that|
w: 3.~With our|kin- dred dear, in that|home of love, While the|
 [DG]2 [DG]>[DF] [DE]2 [Ed]2 | [Ec]6 [Ec]>[DB] | [CA]2 [CE]2 [CE]2 [CA]>[EG] | %6
w: home fair a- bove the|sky, We’ll re-|call the scenes we have|
w: beau- ti- ful home on|high! But they|swell the song, hap- py|
w: ag- es e- ter- nal|fly, We will|meet and sing at the|
 [EG]2 [DF]2 [DF]2 [DB]>[DA] | [DG]2 [DG]>[DF] [DE]2 [DB]2 | [CA]6 ||"^Refrain" [A,C]>[B,D] | %10
w: left be- hind, But we|ne- ver will say “good-|bye.”||
w: ran- somed throng, And they|ne- ver will say “good-|bye.”|In the|
w: Sav- ior’s feet, But we|ne- ver will say “good-|bye.”||
 [CE]4 [Ec]2 [Ec]>[Ec] | [DB]4 [DF]2 [DA]>[DA] | [DG]2 [DB]>[DB] [B,D]2 [DF]2 | [CE]6 [A,C]>[B,D] | %14
w: ||||
w: dawn- ing of the|morn- ing, In that|home far a- bove the|sky; Hap- py|
w: ||||
 [CE]4 [Ec]2 [Ec]>[Ec] | [DB]4 [DF]2 [DA]>[DA] | [EG][EB] z2 [Ed]3 [EG] | [EA]6 |] %18
w: ||||
w: meet- ing, hap- py|greet- ing, When we|ne- ver say “good-|bye.”|
w: ||||
V:2
 [A,,A,]>[A,,A,] | [A,,A,]2 [A,,A,]2 [A,,A,]2 [A,,E,]>[A,,A,] | %2
w: ~ ~|~ ~ ~ ~ ~|
 [D,A,]2 [D,A,]2 [D,A,]2 [D,F,]>[D,F,] | [E,B,]2 [E,B,]>[E,A,] [E,G,]2 [E,B,]2 | %4
w: ~ ~ ~ ~ ~|~ ~ ~ ~ ~|
 [A,,A,]6 [A,,A,]>[A,,A,] | [A,,A,]2 [A,,A,]2 [A,,A,]2 [A,,E,]>[A,,A,] | %6
w: ~ ~ ~|~ ~ ~ ~ ~|
 [D,A,]2 [D,A,]2 [D,A,]2 [D,F,]>[D,F,] | [E,B,]2 [E,B,]>[E,A,] [E,G,]2 [E,G,]2 | [A,,A,]6 || %9
w: ~ ~ ~ ~ ~|~ ~ ~ ~ ~|~|
 [A,,E,]>[A,,E,] | [A,,A,]2 [A,,A,]2 [A,,A,]2 [A,,A,]>[A,,A,] | %11
w: In the|dawn- ing clear of the|
 [D,F,]2 [D,F,]2 [D,A,]2 [D,F,]>[D,F,] | [E,B,]2 [E,G,]>[E,G,] [E,G,]2 [E,G,]2 | %13
w: morn- ing fair, ~ ~|~ ~ ~ ~ ~|
 [A,,A,]6 [A,,E,]>[A,,E,] | [A,,A,]2 [A,,A,]2 [A,,A,]2 [A,,A,]>[A,,A,] | %15
w: ~ ~ ~|meet- ing there, hap- py|
 [D,F,]2 [D,F,]2 [D,A,]2 [D,F,]>[D,F,] | [E,B,][E,G,] z2 [E,B,]3 [E,D] | [A,,A,C]6 |] %18
w: greet- ing there, * *|||

